;FLAVOR:Marlin
;TIME:8232
;Filament used: 7.63285m
;Layer height: 0.15
;MINX:50.209
;MINY:50.209
;MINZ:0.3
;MAXX:149.791
;MAXY:149.791
;MAXZ:15
;Generated with Cura_SteamEngine 4.7.0
M140 S60
M105
M190 S60
M104 S200
M105
M109 S200
M82 ;absolute extrusion mode
G21 ;metric values
G90 ;absolute positioning
M82 ;set extruder to absolute mode
M107 ;start with the fan off
G28 X0 Y0 ;move X/Y to min endstops
G28 Z0 ;move Z to min endstops
G1 Z15.0 F9000 ;move the platform down 15mm
G92 E0 ;zero the extruded length
G1 F200 E3 ;extrude 3mm of feed stock
G92 E0 ;zero the extruded length again
G1 F9000
;Put printing message on LCD screen
M117 Printing...
G92 E0
G92 E0
G1 F1500 E-6.5
;LAYER_COUNT:99
;LAYER:0
M107
G0 F3600 X64.524 Y65.06 Z0.3
;TYPE:SKIRT
G1 F1500 E0
G1 F1800 X65.066 Y64.518 E0.03824
G1 X68.117 Y61.754 E0.24363
G1 X68.708 Y61.269 E0.28177
G1 X72.023 Y58.811 E0.48766
G1 X72.66 Y58.386 E0.52587
G1 X76.197 Y56.267 E0.73157
G1 X76.871 Y55.907 E0.76969
G1 X80.603 Y54.142 E0.97566
G1 X81.312 Y53.848 E1.01395
G1 X85.183 Y52.464 E1.21905
G1 X85.916 Y52.242 E1.25726
G1 X89.917 Y51.241 E1.46302
G1 X90.665 Y51.092 E1.50107
G1 X94.742 Y50.487 E1.7067
G1 X95.503 Y50.412 E1.74485
G1 X99.621 Y50.209 E1.95055
G1 X100.391 Y50.21 E1.98896
G1 X104.508 Y50.414 E2.19461
G1 X105.269 Y50.489 E2.23277
G1 X109.347 Y51.095 E2.43845
G1 X110.095 Y51.244 E2.4765
G1 X114.096 Y52.246 E2.68228
G1 X114.832 Y52.469 E2.72065
G1 X118.701 Y53.855 E2.92568
G1 X119.405 Y54.147 E2.96371
G1 X123.137 Y55.912 E3.16967
G1 X123.811 Y56.272 E3.20779
G1 X127.348 Y58.391 E3.4135
G1 X127.988 Y58.819 E3.45191
G1 X131.301 Y61.278 E3.65775
G1 X131.89 Y61.761 E3.69575
G1 X134.939 Y64.524 E3.90103
G1 X135.482 Y65.067 E3.93934
G1 X138.246 Y68.118 E4.14473
G1 X138.73 Y68.709 E4.18284
G1 X141.187 Y72.022 E4.38862
G1 X141.613 Y72.66 E4.4269
G1 X143.733 Y76.199 E4.63271
G1 X144.092 Y76.871 E4.67073
G1 X145.859 Y80.605 E4.87682
G1 X146.154 Y81.316 E4.91523
G1 X147.535 Y85.181 E5.11999
G1 X147.756 Y85.911 E5.15804
G1 X148.759 Y89.916 E5.36402
G1 X148.909 Y90.667 E5.40223
G1 X149.513 Y94.742 E5.60775
G1 X149.588 Y95.502 E5.64586
G1 X149.791 Y99.62 E5.85155
G1 X149.79 Y100.39 E5.88997
G1 X149.586 Y104.508 E6.09567
G1 X149.512 Y105.267 E6.13371
G1 X148.907 Y109.345 E6.33939
G1 X148.757 Y110.097 E6.37765
G1 X147.754 Y114.098 E6.58344
G1 X147.532 Y114.828 E6.6215
G1 X146.149 Y118.694 E6.82635
G1 X145.855 Y119.403 E6.86464
G1 X144.087 Y123.139 E7.07085
G1 X143.728 Y123.812 E7.1089
G1 X141.609 Y127.348 E7.31457
G1 X141.183 Y127.986 E7.35284
G1 X138.725 Y131.3 E7.55869
G1 X138.239 Y131.892 E7.5969
G1 X135.475 Y134.941 E7.80222
G1 X134.933 Y135.483 E7.84046
G1 X131.882 Y138.247 E8.04585
G1 X131.292 Y138.731 E8.08392
G1 X127.978 Y141.189 E8.28977
G1 X127.339 Y141.616 E8.32811
G1 X123.801 Y143.735 E8.53386
G1 X123.128 Y144.094 E8.57192
G1 X119.396 Y145.859 E8.77788
G1 X118.688 Y146.152 E8.81611
G1 X114.818 Y147.536 E9.02116
G1 X114.084 Y147.759 E9.05943
G1 X110.083 Y148.76 E9.26519
G1 X109.335 Y148.909 E9.30324
G1 X105.257 Y149.514 E9.50892
G1 X104.494 Y149.589 E9.54717
G1 X100.377 Y149.791 E9.75282
G1 X99.611 Y149.791 E9.79103
G1 X95.493 Y149.588 E9.99673
G1 X94.73 Y149.512 E10.03499
G1 X90.653 Y148.906 E10.24062
G1 X89.905 Y148.757 E10.27867
G1 X85.904 Y147.755 E10.48445
G1 X85.169 Y147.532 E10.52277
G1 X81.299 Y146.146 E10.72785
G1 X80.594 Y145.854 E10.76592
G1 X76.862 Y144.089 E10.97189
G1 X76.188 Y143.729 E11.01001
G1 X72.652 Y141.61 E11.21567
G1 X72.014 Y141.184 E11.25394
G1 X68.699 Y138.725 E11.45986
G1 X68.107 Y138.239 E11.49808
G1 X65.057 Y135.474 E11.70346
G1 X64.515 Y134.932 E11.7417
G1 X61.752 Y131.882 E11.94702
G1 X61.267 Y131.29 E11.9852
G1 X58.81 Y127.976 E12.19102
G1 X58.385 Y127.34 E12.22919
G1 X56.266 Y123.803 E12.43489
G1 X55.906 Y123.129 E12.47301
G1 X54.139 Y119.393 E12.6792
G1 X53.845 Y118.683 E12.71754
G1 X52.463 Y114.816 E12.92241
G1 X52.241 Y114.084 E12.96058
G1 X51.24 Y110.083 E13.16634
G1 X51.091 Y109.335 E13.20439
G1 X50.486 Y105.258 E13.41002
G1 X50.411 Y104.495 E13.44827
G1 X50.209 Y100.378 E13.65391
G1 X50.209 Y99.612 E13.69213
G1 X50.412 Y95.494 E13.89783
G1 X50.488 Y94.731 E13.93608
G1 X51.094 Y90.654 E14.14172
G1 X51.243 Y89.906 E14.17977
G1 X52.246 Y85.901 E14.38575
G1 X52.469 Y85.166 E14.42407
G1 X53.852 Y81.304 E14.62873
G1 X54.144 Y80.599 E14.6668
G1 X55.911 Y76.863 E14.87299
G1 X56.271 Y76.189 E14.91111
G1 X58.39 Y72.653 E15.11677
G1 X58.816 Y72.015 E15.15504
G1 X61.274 Y68.701 E15.36089
G1 X61.76 Y68.109 E15.39911
G1 X64.524 Y65.06 E15.60442
G0 F3600 X64.82 Y65.329
G1 F1800 X65.335 Y64.815 E15.64072
G1 X68.386 Y62.051 E15.84611
G1 X68.946 Y61.591 E15.88227
G1 X72.261 Y59.133 E16.08816
G1 X72.866 Y58.729 E16.12445
G1 X76.403 Y56.61 E16.33016
G1 X77.042 Y56.268 E16.36632
G1 X80.774 Y54.503 E16.57228
G1 X81.447 Y54.225 E16.60861
G1 X85.318 Y52.841 E16.81371
G1 X86.013 Y52.63 E16.84994
G1 X90.014 Y51.629 E17.0557
G1 X90.724 Y51.488 E17.09182
G1 X94.801 Y50.883 E17.29745
G1 X95.523 Y50.812 E17.33364
G1 X99.641 Y50.609 E17.53934
G1 X100.371 Y50.609 E17.57576
G1 X104.488 Y50.813 E17.78141
G1 X105.21 Y50.884 E17.8176
G1 X109.288 Y51.49 E18.02329
G1 X109.998 Y51.632 E18.05941
G1 X113.999 Y52.634 E18.26519
G1 X114.697 Y52.846 E18.30158
G1 X118.566 Y54.232 E18.50662
G1 X119.234 Y54.508 E18.54268
G1 X122.966 Y56.273 E18.74864
G1 X123.605 Y56.615 E18.7848
G1 X127.142 Y58.734 E18.99051
G1 X127.749 Y59.14 E19.02694
G1 X131.062 Y61.599 E19.23278
G1 X131.621 Y62.058 E19.26887
G1 X134.67 Y64.821 E19.47415
G1 X135.185 Y65.336 E19.51048
G1 X137.949 Y68.387 E19.71587
G1 X138.409 Y68.947 E19.75203
G1 X140.866 Y72.26 E19.95781
G1 X141.27 Y72.865 E19.9941
G1 X143.39 Y76.404 E20.19992
G1 X143.731 Y77.042 E20.23601
G1 X145.498 Y80.776 E20.44211
G1 X145.778 Y81.451 E20.47857
G1 X147.159 Y85.316 E20.68333
G1 X147.368 Y86.008 E20.71939
G1 X148.371 Y90.013 E20.92538
G1 X148.513 Y90.726 E20.96165
G1 X149.117 Y94.801 E21.16717
G1 X149.188 Y95.522 E21.20331
G1 X149.391 Y99.64 E21.40901
G1 X149.391 Y100.37 E21.44543
G1 X149.187 Y104.488 E21.65113
G1 X149.116 Y105.208 E21.68723
G1 X148.511 Y109.286 E21.89291
G1 X148.369 Y109.999 E21.92918
G1 X147.366 Y114 E22.13496
G1 X147.156 Y114.694 E22.17114
G1 X145.773 Y118.56 E22.37598
G1 X145.494 Y119.232 E22.41228
G1 X143.726 Y122.968 E22.61849
G1 X143.385 Y123.607 E22.65463
G1 X141.266 Y127.143 E22.86029
G1 X140.862 Y127.747 E22.89654
G1 X138.404 Y131.061 E23.10239
G1 X137.943 Y131.623 E23.13866
G1 X135.179 Y134.672 E23.34397
G1 X134.664 Y135.186 E23.38027
G1 X131.613 Y137.95 E23.58566
G1 X131.053 Y138.41 E23.62182
G1 X127.739 Y140.868 E23.82767
G1 X127.133 Y141.272 E23.864
G1 X123.595 Y143.391 E24.06975
G1 X122.957 Y143.733 E24.10587
G1 X119.225 Y145.498 E24.31183
G1 X118.553 Y145.776 E24.34811
G1 X114.683 Y147.16 E24.55316
G1 X113.987 Y147.371 E24.58945
G1 X109.986 Y148.372 E24.79521
G1 X109.276 Y148.513 E24.83132
G1 X105.198 Y149.118 E25.037
G1 X104.475 Y149.189 E25.07325
G1 X100.358 Y149.391 E25.27889
G1 X99.631 Y149.391 E25.31516
G1 X95.513 Y149.188 E25.52086
G1 X94.789 Y149.117 E25.55715
G1 X90.712 Y148.511 E25.76279
G1 X90.002 Y148.369 E25.79891
G1 X86.001 Y147.367 E26.00469
G1 X85.304 Y147.156 E26.04102
G1 X81.434 Y145.77 E26.2461
G1 X80.765 Y145.493 E26.28223
G1 X77.033 Y143.728 E26.48819
G1 X76.393 Y143.386 E26.52439
G1 X72.857 Y141.267 E26.73006
G1 X72.252 Y140.862 E26.76638
G1 X68.937 Y138.403 E26.9723
G1 X68.376 Y137.942 E27.00853
G1 X65.326 Y135.177 E27.21391
G1 X64.812 Y134.663 E27.25018
G1 X62.049 Y131.613 E27.4555
G1 X61.589 Y131.052 E27.49169
G1 X59.132 Y127.738 E27.69751
G1 X58.728 Y127.134 E27.73376
G1 X56.609 Y123.597 E27.93947
G1 X56.267 Y122.958 E27.97563
G1 X54.5 Y119.222 E28.18181
G1 X54.222 Y118.548 E28.21819
G1 X52.84 Y114.681 E28.42306
G1 X52.629 Y113.987 E28.45925
G1 X51.628 Y109.986 E28.66502
G1 X51.487 Y109.276 E28.70113
G1 X50.882 Y105.199 E28.90676
G1 X50.811 Y104.476 E28.943
G1 X50.609 Y100.359 E29.14865
G1 X50.609 Y99.632 E29.18492
G1 X50.812 Y95.514 E29.39062
G1 X50.883 Y94.79 E29.42691
G1 X51.489 Y90.713 E29.63255
G1 X51.631 Y90.003 E29.66867
G1 X52.634 Y85.998 E29.87465
G1 X52.845 Y85.301 E29.91098
G1 X54.228 Y81.439 E30.11564
G1 X54.505 Y80.77 E30.15177
G1 X56.272 Y77.034 E30.35795
G1 X56.614 Y76.394 E30.39415
G1 X58.733 Y72.858 E30.59982
G1 X59.137 Y72.254 E30.63607
G1 X61.595 Y68.94 E30.84192
G1 X62.056 Y68.378 E30.87818
G1 X64.82 Y65.329 E31.0835
G0 F3600 X65.117 Y65.598
G1 F1800 X65.603 Y65.111 E31.11783
G1 X68.654 Y62.347 E31.32322
G1 X69.185 Y61.912 E31.35746
G1 X72.5 Y59.454 E31.56335
G1 X73.072 Y59.072 E31.59767
G1 X76.609 Y56.953 E31.80337
G1 X77.213 Y56.63 E31.83754
G1 X80.945 Y54.865 E32.04351
G1 X81.581 Y54.602 E32.07784
G1 X85.452 Y53.218 E32.28294
G1 X86.11 Y53.018 E32.31725
G1 X90.111 Y52.017 E32.52301
G1 X90.782 Y51.884 E32.55714
G1 X94.859 Y51.279 E32.76277
G1 X95.542 Y51.211 E32.79702
G1 X99.66 Y51.008 E33.00271
G1 X100.351 Y51.009 E33.03719
G1 X104.468 Y51.213 E33.24284
G1 X105.151 Y51.28 E33.27708
G1 X109.229 Y51.886 E33.48276
G1 X109.901 Y52.02 E33.51695
G1 X113.902 Y53.022 E33.72272
G1 X114.562 Y53.222 E33.75713
G1 X118.431 Y54.608 E33.96217
G1 X119.063 Y54.87 E33.9963
G1 X122.795 Y56.635 E34.20226
G1 X123.399 Y56.958 E34.23643
G1 X126.936 Y59.077 E34.44214
G1 X127.511 Y59.461 E34.47664
G1 X130.824 Y61.92 E34.68247
G1 X131.352 Y62.354 E34.71657
G1 X134.401 Y65.117 E34.92186
G1 X134.889 Y65.604 E34.95625
G1 X137.653 Y68.655 E35.16164
G1 X138.088 Y69.185 E35.19585
G1 X140.545 Y72.498 E35.40163
G1 X140.927 Y73.071 E35.43599
G1 X143.047 Y76.61 E35.6418
G1 X143.369 Y77.213 E35.67591
G1 X145.136 Y80.947 E35.882
G1 X145.401 Y81.586 E35.91652
G1 X146.782 Y85.451 E36.12128
G1 X146.98 Y86.105 E36.15537
G1 X147.983 Y90.11 E36.36135
G1 X148.117 Y90.785 E36.39569
G1 X148.721 Y94.86 E36.60121
G1 X148.789 Y95.541 E36.63535
G1 X148.992 Y99.659 E36.84105
G1 X148.991 Y100.35 E36.87552
G1 X148.787 Y104.468 E37.08122
G1 X148.72 Y105.149 E37.11536
G1 X148.115 Y109.227 E37.32104
G1 X147.981 Y109.902 E37.35538
G1 X146.978 Y113.903 E37.56116
G1 X146.779 Y114.559 E37.59536
G1 X145.396 Y118.425 E37.80021
G1 X145.132 Y119.061 E37.83456
G1 X143.364 Y122.797 E38.04077
G1 X143.041 Y123.401 E38.07494
G1 X140.922 Y126.937 E38.28061
G1 X140.54 Y127.509 E38.31492
G1 X138.082 Y130.823 E38.52077
G1 X137.646 Y131.354 E38.55505
G1 X134.882 Y134.403 E38.76037
G1 X134.396 Y134.89 E38.79469
G1 X131.345 Y137.654 E39.00008
G1 X130.815 Y138.088 E39.03426
G1 X127.501 Y140.546 E39.24011
G1 X126.928 Y140.929 E39.27449
G1 X123.39 Y143.048 E39.48024
G1 X122.786 Y143.371 E39.51441
G1 X119.054 Y145.136 E39.72037
G1 X118.418 Y145.399 E39.75471
G1 X114.548 Y146.783 E39.95976
G1 X113.89 Y146.983 E39.99407
G1 X109.889 Y147.984 E40.19984
G1 X109.217 Y148.117 E40.23401
G1 X105.139 Y148.722 E40.43969
G1 X104.455 Y148.79 E40.47398
G1 X100.338 Y148.992 E40.67963
G1 X99.65 Y148.992 E40.71395
G1 X95.532 Y148.789 E40.91965
G1 X94.848 Y148.721 E40.95394
G1 X90.771 Y148.115 E41.15958
G1 X90.099 Y147.981 E41.19377
G1 X86.098 Y146.979 E41.39954
G1 X85.439 Y146.779 E41.4339
G1 X81.569 Y145.393 E41.63898
G1 X80.936 Y145.131 E41.67316
G1 X77.204 Y143.366 E41.87913
G1 X76.599 Y143.042 E41.91337
G1 X73.063 Y140.923 E42.11903
G1 X72.491 Y140.541 E42.15334
G1 X69.176 Y138.082 E42.35926
G1 X68.644 Y137.646 E42.39358
G1 X65.594 Y134.881 E42.59897
G1 X65.108 Y134.395 E42.63326
G1 X62.345 Y131.345 E42.83858
G1 X61.91 Y130.814 E42.87282
G1 X59.453 Y127.5 E43.07864
G1 X59.071 Y126.928 E43.11296
G1 X56.952 Y123.391 E43.31866
G1 X56.629 Y122.787 E43.35284
G1 X54.862 Y119.051 E43.55902
G1 X54.598 Y118.414 E43.59342
G1 X53.216 Y114.547 E43.7983
G1 X53.017 Y113.89 E43.83255
G1 X52.016 Y109.889 E44.03831
G1 X51.883 Y109.218 E44.07244
G1 X51.278 Y105.141 E44.27807
G1 X51.21 Y104.456 E44.31241
G1 X51.008 Y100.339 E44.51805
G1 X51.008 Y99.651 E44.55238
G1 X51.211 Y95.533 E44.75808
G1 X51.279 Y94.849 E44.79237
G1 X51.885 Y90.772 E44.99801
G1 X52.019 Y90.1 E45.03219
G1 X53.022 Y86.095 E45.23817
G1 X53.222 Y85.436 E45.27253
G1 X54.605 Y81.574 E45.47719
G1 X54.867 Y80.941 E45.51137
G1 X56.634 Y77.205 E45.71755
G1 X56.958 Y76.6 E45.75179
G1 X59.077 Y73.064 E45.95746
G1 X59.459 Y72.492 E45.99177
G1 X61.917 Y69.178 E46.19762
G1 X62.353 Y68.647 E46.2319
G1 X65.117 Y65.598 E46.43722
G0 F3600 X65.413 Y65.866
G1 F1800 X65.872 Y65.408 E46.46957
G1 X68.923 Y62.644 E46.67496
G1 X69.423 Y62.233 E46.70725
G1 X72.738 Y59.775 E46.91314
G1 X73.277 Y59.415 E46.94547
G1 X76.814 Y57.296 E47.15118
G1 X77.384 Y56.992 E47.18341
G1 X81.116 Y55.227 E47.38937
G1 X81.716 Y54.978 E47.42178
G1 X85.587 Y53.594 E47.62688
G1 X86.207 Y53.406 E47.6592
G1 X90.208 Y52.405 E47.86496
G1 X90.841 Y52.279 E47.89716
G1 X94.918 Y51.674 E48.10279
G1 X95.562 Y51.611 E48.13508
G1 X99.68 Y51.408 E48.34077
G1 X100.332 Y51.408 E48.3733
G1 X104.449 Y51.612 E48.57895
G1 X105.092 Y51.676 E48.61119
G1 X109.17 Y52.282 E48.81688
G1 X109.803 Y52.408 E48.84908
G1 X113.804 Y53.41 E49.05485
G1 X114.427 Y53.599 E49.08733
G1 X118.296 Y54.985 E49.29237
G1 X118.892 Y55.232 E49.32456
G1 X122.624 Y56.997 E49.53052
G1 X123.194 Y57.301 E49.56275
G1 X126.731 Y59.42 E49.76845
G1 X127.273 Y59.782 E49.80097
G1 X130.586 Y62.241 E50.00681
G1 X131.084 Y62.65 E50.03896
G1 X134.133 Y65.413 E50.24424
G1 X134.592 Y65.873 E50.27666
G1 X137.356 Y68.924 E50.48205
G1 X137.766 Y69.423 E50.51427
G1 X140.223 Y72.736 E50.72005
G1 X140.584 Y73.276 E50.75246
G1 X142.704 Y76.815 E50.95828
G1 X143.008 Y77.384 E50.99046
G1 X144.775 Y81.118 E51.19656
G1 X145.024 Y81.72 E51.22906
G1 X146.405 Y85.585 E51.43382
G1 X146.592 Y86.203 E51.46604
G1 X147.595 Y90.208 E51.67202
G1 X147.722 Y90.843 E51.70433
G1 X148.326 Y94.918 E51.90985
G1 X148.389 Y95.561 E51.94208
G1 X148.592 Y99.679 E52.14778
G1 X148.592 Y100.331 E52.18031
G1 X148.388 Y104.449 E52.38601
G1 X148.325 Y105.091 E52.41819
G1 X147.72 Y109.169 E52.62387
G1 X147.593 Y109.805 E52.65623
G1 X146.59 Y113.806 E52.86201
G1 X146.402 Y114.424 E52.89424
G1 X145.019 Y118.29 E53.09909
G1 X144.771 Y118.89 E53.13148
G1 X143.003 Y122.626 E53.33768
G1 X142.698 Y123.196 E53.36994
G1 X140.579 Y126.732 E53.5756
G1 X140.219 Y127.271 E53.60794
G1 X137.761 Y130.585 E53.81379
G1 X137.35 Y131.086 E53.84612
G1 X134.586 Y134.135 E54.05143
G1 X134.127 Y134.593 E54.08378
G1 X131.076 Y137.357 E54.28917
G1 X130.577 Y137.767 E54.32139
G1 X127.263 Y140.225 E54.52724
G1 X126.722 Y140.586 E54.55969
G1 X123.184 Y142.705 E54.76544
G1 X122.615 Y143.009 E54.79762
G1 X118.883 Y144.774 E55.00359
G1 X118.283 Y145.023 E55.036
G1 X114.413 Y146.407 E55.24105
G1 X113.793 Y146.595 E55.27337
G1 X109.792 Y147.596 E55.47913
G1 X109.159 Y147.722 E55.51133
G1 X105.081 Y148.327 E55.71701
G1 X104.435 Y148.39 E55.74939
G1 X100.318 Y148.592 E55.95504
G1 X99.67 Y148.592 E55.98737
G1 X95.552 Y148.389 E56.19306
G1 X94.907 Y148.325 E56.2254
G1 X90.83 Y147.719 E56.43104
G1 X90.197 Y147.593 E56.46324
G1 X86.196 Y146.591 E56.66901
G1 X85.574 Y146.403 E56.70143
G1 X81.704 Y145.017 E56.90652
G1 X81.107 Y144.769 E56.93877
G1 X77.375 Y143.004 E57.14473
G1 X76.804 Y142.699 E57.17703
G1 X73.268 Y140.58 E57.38269
G1 X72.729 Y140.22 E57.41503
G1 X69.414 Y137.761 E57.62095
G1 X68.913 Y137.35 E57.65328
G1 X65.863 Y134.585 E57.85866
G1 X65.405 Y134.126 E57.89101
G1 X62.642 Y131.076 E58.09633
G1 X62.231 Y130.576 E58.12862
G1 X59.774 Y127.262 E58.33444
G1 X59.414 Y126.723 E58.36678
G1 X57.295 Y123.186 E58.57249
G1 X56.991 Y122.616 E58.60472
G1 X55.224 Y118.88 E58.8109
G1 X54.975 Y118.279 E58.84336
G1 X53.593 Y114.412 E59.04823
G1 X53.405 Y113.793 E59.08051
G1 X52.404 Y109.792 E59.28627
G1 X52.278 Y109.159 E59.31847
